X:379
T:Get the Starch Out
M:C|
C:© Paul Gitlitz 2015
K:D
z6AG|:"D"Fd2e fdef|fdae- "G"e3g|"D"fdad "Bm"fedB|"A"AFED- "D"DBAG|!
"D"Fd2e fdef|fdae- "A"e2ed|cBAc BAcB|1"A"AdGF- "D"FABA:|2"D"AFED- D3D|!
|:"D"B,A,2D "D"FE2A|"G"BAGA- "A"AABc|"D"defd "Em"edBA|"D"dAFE- "A"E3D|!
"D"B,A,2D "D"FE2A|"G"BAGA- "A"AABc|"D"defd "Em"edBA|"A"AFE2 "D"D4:|]
